X:1
T:Jack's Lament
T:Danny Elfman
%%score 1 { ( 2 4 ) | ( 3 5 ) }
L:1/8
Q:1/4=60
M:4/4
K:Db
V:1 treble nm="Voice" snm="Vo."
V:2 treble nm="Piano" snm="Pno."
V:4 treble 
V:3 treble 
V:5 treble 
V:1
"^Mysteriously" z8 | z8 | z4 z2 z"^Jack:" B/c/ | dc/B/ =A/A/B/c/ d/d/c/B/ AB/c/ | %4
w: ||There are|few who'd de- ny at what I do I am the best, for my|
 d/d/c/B/ =AB/c/ E2 z A/B/ | cc/c/ B/B/=A/B/ cc BA/B/ | cB/=A/ =G/A/B/G/ AF z _G/_A/ | %7
w: tal- ents are re- nowned far and wide. When it|comes to sur- pris- es in the moon- lit night, I ex-|cel with- out ev- er e- ven try- ing. With the|
 B/B/B/B/ A/A/G/A/ BB AG/A/ | BE E/E/=D/E/ =E z z A/_B/ | _cc/c/ BB/B/ AA GE/F/ | %10
w: slight- est lit- tle eff- ort of my ghost- like charms, I have|seen grown men give out a shriek. With a|wave of my hand, and a well placed moan, I have|
 G/F/E/G/ F/E/=D/F/ E z z G |[Q:1/4=52] AA/A/ GG/G/ AA GG/G/ |[Q:1/4=60] BB A/A/A/A/ GG F z/ F/ | %13
w: swept the ver- y brav- est off their feet. Yet|year af- ter year, it's the same rou- tine, and I|grow so wea- ry of the sound of screams. And|
 G2 B z/ E/ E=D C z/ E/ | GG F/F/F/F/"^rit."[Q:1/4=54] G[Q:1/4=42]E[Q:1/4=60] !fermata!=D2 | %15
w: I, Jack, the Pump- kin King, have|grown so tir- ed of the same old thing.|
[M:3/4] !breath!z4[Q:1/4=112]"^Waltz" B2 |[K:G] A4 _B2 | G4 _B2 | A2 G2 F2 | E4 G2 | F4 G2 | %21
w: Oh,|some where|deep in-|side of these|bones, an|emp- ti-|
 E4 G2 | F4 G2 | E4 _B2 | A4 _B2 | G4 _B2 | A2 G2 F2 | E4 G2 | F4 G2 | E4 G2 | %30
w: ness be-|gan to|grow. There's|some- thing|out there,|far from my|home. A|long- ing|that I've|
[Q:1/4=99] F2[Q:1/4=86] E2[Q:1/4=80] ^D2 |[M:4/4][Q:1/4=60]"^Tempo I" E4 z2 z E/F/ | %32
w: nev- * er|known. I'm a|
 GF/E/ ^DE/F/ GF/E/ DE/F/ | GF/E/ ^DE/F/ A,2 z D/E/ | FF/F/ E/E/(^D/E/) FF/F/ E/E/D/E/ | %35
w: mas- ter of fright and a de- mon of light, and I'll|scare you right out of your pants. To a|guy in Ken- tuck- y, I'm _ Mis- ter Un- luck- ly and I'm|
 FE/^D/ ^C/D/E/C/ D z z B | BB/B/ BB/B/ BB/B/ Bc/d/ | eA A/A/^G/A/ _BB z d | %38
w: known through- out Eng- * land and France. And|since I am dead, I can take of my head to re-|cite Shake- spear- e- an quo- ta- tions. No|
 =f/4f/4ff/ e>e dd/d/ cA/B/ | c/B/A/c/ B/A/^G/B/ AA, z c |[Q:1/4=54] d2 c>c d/d/d/d/ cc/c/ | %41
w: an- i- mal, no man can scream like I can with the|fu- ry of my re- * ci- * ta- tions. But|who here would ev- er un- der- stand that the|
[Q:1/4=60] ee dd/d/ c/c/c B z/ B/ | c/c/c/c/ eA/A/ A/A/^G/G/ F z/ A/ | %43
w: Pump- kin King with the skel- e- ton grin would|ti- re of his crown? If they on- ly un- der- stood, he'd|
[Q:1/4=54] A/A/A[Q:1/4=48] ^GG/G/[Q:1/4=42] AA[Q:1/4=60] !fermata!G2- | %44
w: give it all up if he on- ly could.|
[M:3/4] !breath!G4[Q:1/4=112]"^Waltz" c2 ||[K:A] B4 =c2 | A4 =c2 | B2 A2 G2 | F4 A2 | G4 A2 | %50
w: * Oh,|there's an|emp- ty|place in my|bones that|calls out|
 F4 A2 | G4 A2 | F4 =c2 | B4 =c2 | A4 =c2 | B2 A2 G2 | F4 A2 |[Q:1/4=108] G4 A2 | %58
w: for some-|thing un-|known. The|fame and|praise come|year af- ter|year, does|no- thing|
[Q:1/4=104] F4 A2 |[Q:1/4=96] G2[Q:1/4=88] F2[Q:1/4=80] =F2 |[M:4/4][Q:1/4=60]"^Tempo I" F8- | %61
w: for these|emp- * ty|tears...|
 F2 z2 z4 | z8 |] %63
w: ||
V:2
!p! b2 =a2 _a2 =g2 | a2 =g2 _g2 f2 |!<(! =e3 =g!<)! !fermata![^cegb]2 z!mp! B/=c/ | %3
 d[DFc]/B/ =A/A/[DFB]/c/ d/d/[DFc]/B/ A[DFB]/c/ | d/d/[DFc]/B/ =A[CFB]/c/ .E.[EGB] .[GBe]A/B/ | %5
"_cresc." [=E=Gc][EGc]/c/ [EGB]/B/=A/B/ .[EGc].[EGc] !>![_E_GB]A/B/ | %6
!mf! [=E=Gc]B/=A/ [EG]/A/B/G/"_dim." A.[FAc] .[Acf][_E_G]/[F_A]/ | %7
!mp! [GB]/B/[GB]/B/ [FA]/A/[EG]/[FA]/ [EGB][EGB] [=B,FA][EG]/[FA]/ | %8
"_cresc." [EGB][B,E] [G,B,E]/E/=D/E/ [^G,=B,=E]2 z A/_B/ | _cc/c/ BB/B/ [=DFA][B,FA] [B,EG]E/F/ | %10
 [B,G]/[A,F]/[G,E]/[B,G]/ [A,F]/[G,E]/[F,=D]/[A,F]/ [G,E]!>![EGB]!f!!>![GBe]!mp!G | %11
 [=DFA][DFA]/A/ [_C__EG][_C__EG]/G/ [C_FA][CFA] [=A,=C_EG]G/G/ | %12
 [=DFB]B [B,FA]/A/A/A/!<(! [=A,CEG]G [_A,B,DF]>F!<)! |!f! G2!sfz! [B,EGB] z/ E/ E=D C>!mp!E | %14
 [__B,EG]G [A,=DF]/F/F/F/"_poco rit." !tenuto![=A,CEG]!tenuto![G,A,CE] !fermata![F,_B,D]2- | %15
[M:3/4] !breath![F,B,D]4!mf! B2 |[K:G] A4 _B2 | G4 _B2 | A2 G2 F2 | E4 G2 | F4 G2 | E4 G2 | F4 G2 | %23
!<(! E4 _B2!<)! |!mf!"_cresc." A4 _B2 | G4 _B2 | A2 G2 F2 | E4!f! G2 |"_dim." F4 G2 | E4 G2 | %30
 F2 E2 ^D2 |[M:4/4] [G,E][G,B,^CE] z [G,B,CE] z [G,B,CE] z E/F/ | GF/E/ ^DE/F/ GF/E/ DE/F/ | %33
 GF/E/ ^DE/F/ .A,.[A,CE] .[CEA]D/E/ | F[^A,^CF]/F/ E/E/[G,_B,^D]/E/ FF/F/ [=A,=CE]/E/D/E/ | %35
 FE/^D/ ^C/D/E/C/ .[B,D].[DF] .[FB]=c/=d/ |"_cresc." ee/e/ dc/d/ ee/e/ dc/d/ | %37
!mf! [Ace][CEA] [CEA]/A/[CE^G]/A/!<(! [D=F_B] [DFB]2!<)!!f! d | =f/4f/4ff/ e>e dd/d/ [EAc]A/B/ | %39
 c/B/A/c/ B/A/^G/B/ [CEA].[Ace].[cea]!p!c | [E^Gd]2 [=F_Ac]>c [DF_Bd]/d/[DFBd]/d/ [C_E^F=Ac]c/c/ | %41
 [Fce]e [=E=Bd]"_cresc."[EBd]/d/ [_EFc]/c/[EFc] [D^GB]>B | %42
!<(! [_EFAc]/c/c/c/!f! [Ace]A,/A,/!>(! [^CA]/A/!mf![B,C^G]/G/ [A,CF]>A!<)!!>)! | %43
!mp! [=CFA]/A/A [B,^E^G]G/G/ [FA][FA] !fermata!G2- |[M:3/4] !breath!G4!mf! c2 ||[K:A] B4 =c2 | %46
 A4 =c2 | B2 A2 G2 | F4 A2 | G4 A2 | F4 A2 | G4 A2 |!<(! [CF]A, CF =c2!<)! |!f! B4 =c2 | A4 =c2 | %55
 B2 A2 G2 | F4 A2 | G4 A2 | F4 A2 |!ff!!>(! G2 F2 ^E2!>)! |[M:4/4] F8- |"_dim." F4 CA,CA, | %62
!pp! !arpeggio!!fermata![FAcf]8 |] %63
V:3
"^legato" B/d/f/d/ =A/d/f/d/ _A/d/f/d/ =G/d/f/d/ | A/d/f/d/ =G/d/f/d/ _G/B/d/B/ F/B/d/B/ | %2
 =E/=G/B/G/ D/G/B/G/ !fermata![B,EGB]2 z2 |[K:bass]"^legato" B,,2 =A,,2 _A,,2 =G,,2 | %4
 _G,,2 F,,2 E,,3 z | C,,2 ^C,,2 .=E,,.=G,, !>!B,,2 | =G,,2 C,,2 .F,,.E,,.D,,.C,, | %7
 .E,,.E,,.B,,,.F,, .G,,.G,,.A,,.A,, | .B,,G,,/F,,/ .E,,.B,, =B,,/=E,,/^G,,/B,,/ =E, z | %9
 A,,=D,,E,,G,, F,,=D,E, z | .B,,.B,,.B,,,.B,,, .E,,.B,,,.[E,,,E,,] z | %11
"^a bit slower" B,,B,,_C,C, _F,F, E,2 |"^a tempo" [B,,,B,,]2 [C,,C,][=D,,=D,] [E,,E,]2 [F,,F,]2 | %13
 G,,2 !>![E,,E,]"^angrily" z [E,,E,][=D,,=D,][C,,C,] z | %14
 _C,2 B,,2 !tenuto!G,,!tenuto!E,, !fermata!B,,,2- |[M:3/4] !breath!B,,,4 z2 | %16
[K:G]"^lyrically" _E,6 | G,6 | G,6 | B,,6 | A,,6 | E,6 | A,,2 C,2 D,2 | E,4 [E,,E,]2 | [_E,,_E,]6 | %25
 [D,,D,]6 | [^C,,^C,]6 | [B,,,B,,]6 | [A,,,A,,]2 [C,,C,]2 [D,,D,]2 | [E,,E,]6 |"^rall." B,,6 | %31
[M:4/4]!mp! [E,,E,] z [B,,,B,,] z [E,,E,] z [B,,,B,,] z | E,2 _E,2 D,2 _D,2 | C,2 B,,2 A,,3 z | %34
 F,,2 G,,2 .^A,,.^C, E,2 | .^A,,.^C,.F,.F,, .B,,.=A,,.G,,.F,, |"_legato" A,,2 B,,2 C,2 D,2 | %37
 E,C,A,,E,, =F,,/_B,,/D,/=F,/ _A, z | D,^G,,A,,C, B,,^G,A,E, | %39
 C,/B,,/A,,/C,/ B,,/A,,/^G,,/B,,/ .A,,.E,,A,,, z |"^a bit slower" E,,2 =F,,2 _B,,^G,,A,, z | %41
"^a tempo" E,2 F,^G, A,2 B,3/2 z/ |!mf! [C,C]2 [A,,A,] z ^C,,^D,,/^E,,/ F,,3/2 z/ | %43
"^rall." D,2 ^C,2 .A,,.F,, !fermata!^C,,2- |[M:3/4] !breath!C,,4 z2 || %45
[K:A]"^lyrically" [=F,,=F,]4 z2 | [A,,A,]4 z2 | [A,,A,]4 z2 | [F,,F,]4 z2 | B,,2 D,2 E,2 | F,4 z2 | %51
 B,,2 D,2 E,2 | F,4 [F,,F,]2 | [=F,,=F,]6 | [E,,E,]6 | [^D,,^D,]6 | [C,,C,]6 | %57
"^rall." [B,,,B,,]2 [D,,D,]2 [E,,E,]2 | [F,,F,]6 |"^molto rit." C,4 C,,2 | %60
[M:4/4]!mp! [F,,F,]2 z2 [C,,C,]2 z2 | [F,,F,]2 [D,,D,]2 [C,,C,]2 [A,,,A,,]2 | %62
 !fermata![F,,,F,,]8 |] %63
V:4
 x8 | x8 | x8 | x8 | x8 | x8 | x8 | x8 | x8 | [=DA]2 [EG]2 x4 | x8 | x8 | x8 | x8 | x8 | %15
[M:3/4] x6 |[K:G] z2 [C_EF]4 | z2 [_B,D]4 | z2 [^CE]4 | z2 [G,B,]4 | z2 [A,C]4 | z2 [G,B,]4 | %22
 z2 [A,C]4 | z2 [G,B,]2 x2 | z2 [C_EF]2 [CEF]2 | z2 [_B,D]2 [B,D]2 | z2 [A,E]2 A,2 | z2 [G,B,]4 | %28
 z2 [A,C]4 | z2 [G,B,^C]4 | A,2 G,2 F,2 |[M:4/4] x8 | x8 | x8 | x8 | x8 | %36
 [Ac]2 [=F_AB]2 [E=A]2 [F_AB]2 | x8 | [ABd]2 [Ac]2 [E^G]2 x2 | x8 | x8 | x8 | x8 | %43
 x4 ^CDD!fermata!C- |[M:3/4] C4 x2 ||[K:A] [=F_A]D [FA]D [FA]D | E=C EC EC | [^DF]B, [DF]B, DB, | %48
 CA, CA, CA, | DB, DB, DB, | CA, CA, CA, | DB, DB, DB, | x6 | z2"_cresc." [D=F_A]2 [DFA]2 | %54
 z2 [A,=CE]2 [EA]2 | z2 [B,F]2 B,2 | z2 [A,C]4 | z2 [B,D]2 [B,D]2 | z2 [A,C^D]4 | %59
 [B,C]2 [A,C]2 [G,B,]2 |[M:4/4] CA,CA, CA,CA, | CA,CA, x4 | x8 |] %63
V:5
 x8 | x8 | x8 |[K:bass] x8 | x8 | x8 | x8 | x8 | x8 | x8 | x8 | x8 | x8 | x8 | x8 |[M:3/4] x6 | %16
[K:G] x6 | x6 | x6 | x6 | x6 | x6 | x6 | x6 | x6 | x6 | x6 | x6 | x6 | x6 | x6 |[M:4/4] x8 | %32
 z [G,B,] z [G,B,] z [G,B,] z [G,B,] | z [E,G,] z [F,B,] x3 z | x8 | x8 | x8 | x8 | x8 | x8 | x8 | %41
 x8 | x8 | x8 |[M:3/4] x6 ||[K:A] x6 | x6 | x6 | x6 | x6 | x6 | x6 | x6 | x6 | x6 | x6 | x6 | x6 | %58
 x6 | x6 |[M:4/4] x8 | x8 | x8 |] %63

